!!!OTL: O Little Town of Bethlehem
!!!COM: Redner, Lewis Henry
!!!ODT: 1868
!!!LYR: Brooks, Phillips
!!!YOR: The Christmas Fake Book
!!!YOY: 1990
!!!AST: Christmas song
!!!YEC: Brian Luke, 2001
**kern	**harm
*k[b-]	*k[b-]
*M4/4	*M4/4
*F:	*F:
*>A	*>A
4a	.
=1	=1
4a	I
4a	.
4g#	io
4a	I
=2	=2
4cc	viio/ii
4b-	ii
4d	.
4g	.
=3	=3
4f	I
8e	.
8f	.
4g	V7
4c	.
=4	=4
2.a	I;
*>A'	*>A'
4a	.
=5	=5
4a	.
4a	iv/ii
4dd	V7/ii
4cc	.
=6	=6
4cc	ii
4b-	.
4d	.
4g	.
=7	=7
4f	I
8e	.
8f	.
4a	V7
4g	.
=8	=8
2.f	I;
*>B	*>B
4a	.
=9	=9
4a	.
4a	.
4g	ii
4f	#iio
=10	=10
2e	V/vi
4e	.
4e	.
=11	=11
4d	vi
4e	V7/vi
4f	vi
4g	.
=12	=12
2.a	V/vi;
*>A''	*>A''
4a	.
=13	=13
4a	I
4a	.
4g#	io
4a	I
=14	=14
4cc	viio/ii
4b-	ii
4d	.
4dd	.
=15	=15
4cc	I
4f	.
4.a	V7
8g	.
=16	=16
2.f	I;
*-	*-
